24x24/apps/xampp.svg

<svg xmlns="http://www.w3.org/2000/svg" width="24" height="24" version="1">
 <g transform="translate(1,1)">
  <rect fill="#fb7a24" width="20" height="20" x="-21" y="-21" rx="1" ry="1" transform="matrix(0,-1,-1,0,0,0)"/>
  <path fill="#fff" opacity=".2" d="m1 2.5v-0.5c0-0.554 0.446-1 1-1h18c0.554 0 1 0.446 1 1v0.5c0-0.554-0.446-1-1-1h-18c-0.554 0-1 0.446-1 1z"/>
  <path opacity=".2" d="m1 20v0.5c0 0.554 0.446 1 1 1h18c0.554 0 1-0.446 1-1v-0.5c0 0.554-0.446 1-1 1h-18c-0.554 0-1-0.446-1-1z"/>
  <path opacity=".2" d="m7.5 4.5a3.5 3.5 0 0 0 -3.5 3.5 3.5 3.5 0 0 0 3.2822 3.492c0.02983-0.04744 0.054063-0.09305 0.086914-0.1416 0.34296-0.50682 0.97551-0.95914 1.5986-1.1406 0.6232-0.182 1.2403-0.21 2.0323-0.21a1.5002 1.5002 0 0 1 0.21973 0.0166c0.49437 0.07311 0.71606 0.02013 0.77539-0.002 0.05933-0.02208 0.0437 0.0031 0.13574-0.13574 0.18407-0.27774 0.46608-1.2467 0.99023-2.4697a1.5002 1.5002 0 0 1 1.3721 -0.92871 1.5002 1.5002 0 0 1 1.3857 2.1104c-0.39893 0.93084-0.56427 1.8906-1.2207 2.9014a3.5 3.5 0 0 0 3.342 -3.493 3.5 3.5 0 0 0 -3.5 -3.5 3.5 3.5 0 0 0 -3.4912 3.2617 3.5 3.5 0 0 0 -0.0088 0 3.5 3.5 0 0 0 -0.01172 0 3.5 3.5 0 0 0 -3.488 -3.2617zm0 2a1.5 1.5 0 0 1 1.5 1.5 1.5 1.5 0 0 1 -1.5 1.5 1.5 1.5 0 0 1 -1.5 -1.5 1.5 1.5 0 0 1 1.5 -1.5zm7.1504 5.0049c-0.0068 0.01041-0.01165 0.02083-0.01856 0.03125-0.34032 0.5135-0.89316 1.0317-1.5898 1.291-0.64545 0.24023-1.3418 0.26682-2.0859 0.1748-0.62876 0.0029-1.0024 0.053-1.124 0.08594-0.03148 0.07072-0.29751 1.0037-0.95801 2.5137a1.5002 1.5002 0 1 1 -2.7477 -1.204c0.529-1.209 0.5626-1.952 1.1435-2.886a3.5 3.5 0 0 0 -3.2695 3.488 3.5 3.5 0 0 0 3.5 3.5 3.5 3.5 0 0 0 3.5 -3.5 3.5 3.5 0 0 0 -0.012 -0.239 3.5 3.5 0 0 0 0.012 0.001 3.5 3.5 0 0 0 0.0088 0 3.5 3.5 0 0 0 -0.009 0.238 3.5 3.5 0 0 0 3.5 3.5 3.5 3.5 0 0 0 3.5 -3.5 3.5 3.5 0 0 0 -3.35 -3.495zm-0.15 1.995a1.5 1.5 0 0 1 1.5 1.5 1.5 1.5 0 0 1 -1.5 1.5 1.5 1.5 0 0 1 -1.5 -1.5 1.5 1.5 0 0 1 1.5 -1.5z"/>
  <path fill="#fff" d="m7.5 4a3.5 3.5 0 0 0 -3.5 3.5 3.5 3.5 0 0 0 3.2822 3.492c0.02983-0.04744 0.054063-0.09305 0.086914-0.1416 0.34296-0.50682 0.97551-0.95914 1.5986-1.1406 0.6232-0.1813 1.2403-0.2098 2.0323-0.2098a1.5002 1.5002 0 0 1 0.21973 0.0166c0.49437 0.07311 0.71606 0.02013 0.77539-0.002 0.05933-0.02208 0.0437 0.0031 0.13574-0.13574 0.18407-0.27774 0.46608-1.2467 0.99023-2.4697a1.5002 1.5002 0 0 1 1.3721 -0.92871 1.5002 1.5002 0 0 1 1.3857 2.1104c-0.39893 0.93084-0.56427 1.8906-1.2207 2.9014a3.5 3.5 0 0 0 3.342 -3.492 3.5 3.5 0 0 0 -3.5 -3.5 3.5 3.5 0 0 0 -3.4912 3.2617 3.5 3.5 0 0 0 -0.0088 0 3.5 3.5 0 0 0 -0.01172 0 3.5 3.5 0 0 0 -3.488 -3.2617zm0 2a1.5 1.5 0 0 1 1.5 1.5 1.5 1.5 0 0 1 -1.5 1.5 1.5 1.5 0 0 1 -1.5 -1.5 1.5 1.5 0 0 1 1.5 -1.5zm7.1504 5.0049c-0.0068 0.01041-0.01165 0.02083-0.01856 0.03125-0.34032 0.5135-0.89316 1.0317-1.5898 1.291-0.64545 0.24023-1.3418 0.26682-2.0859 0.1748-0.62876 0.0029-1.0024 0.053-1.124 0.08594-0.03148 0.07072-0.29751 1.0037-0.95801 2.5137a1.5002 1.5002 0 1 1 -2.7477 -1.204c0.529-1.209 0.5626-1.952 1.1435-2.886a3.5 3.5 0 0 0 -3.2695 3.488 3.5 3.5 0 0 0 3.5 3.5 3.5 3.5 0 0 0 3.5 -3.5 3.5 3.5 0 0 0 -0.012 -0.239 3.5 3.5 0 0 0 0.012 0.001 3.5 3.5 0 0 0 0.0088 0 3.5 3.5 0 0 0 -0.009 0.238 3.5 3.5 0 0 0 3.5 3.5 3.5 3.5 0 0 0 3.5 -3.5 3.5 3.5 0 0 0 -3.35 -3.495zm-0.15 1.995a1.5 1.5 0 0 1 1.5 1.5 1.5 1.5 0 0 1 -1.5 1.5 1.5 1.5 0 0 1 -1.5 -1.5 1.5 1.5 0 0 1 1.5 -1.5z"/>
 </g>
</svg>

<svg xmlns="http://www.w3.org/2000/svg" width="24" height="24" version="1"><g transform="translate(1 1)"><rect fill="#fb7a24" width="20" height="20" x="-21" y="-21" rx="1" ry="1" transform="matrix(0 -1 -1 0 0 0)"/><path fill="#fff" opacity=".2" d="M1 2.5V2c0-.554.446-1 1-1h18c.554 0 1 .446 1 1v.5c0-.554-.446-1-1-1H2c-.554 0-1 .446-1 1z"/><path opacity=".2" d="M1 20v.5c0 .554.446 1 1 1h18c.554 0 1-.446 1-1V20c0 .554-.446 1-1 1H2c-.554 0-1-.446-1-1zM7.5 4.5A3.5 3.5 0 0 0 4 8a3.5 3.5 0 0 0 3.282 3.492c.03-.047.054-.093.087-.142.343-.506.976-.959 1.599-1.14.623-.182 1.24-.21 2.032-.21a1.5 1.5 0 0 1 .22.016c.494.074.716.02.775-.002.06-.022.044.004.136-.135.184-.278.466-1.247.99-2.47a1.5 1.5 0 0 1 1.372-.929 1.5 1.5 0 0 1 1.386 2.11c-.399.931-.564 1.891-1.22 2.902A3.5 3.5 0 0 0 18 8a3.5 3.5 0 0 0-3.5-3.5 3.5 3.5 0 0 0-3.491 3.262 3.5 3.5 0 0 0-.009 0 3.5 3.5 0 0 0-.012 0A3.5 3.5 0 0 0 7.5 4.499zm0 2A1.5 1.5 0 0 1 9 8a1.5 1.5 0 0 1-1.5 1.5A1.5 1.5 0 0 1 6 8a1.5 1.5 0 0 1 1.5-1.5zm7.15 5.005-.018.031c-.34.514-.893 1.032-1.59 1.291-.645.24-1.342.267-2.086.175-.629.003-1.002.053-1.124.086-.031.07-.297 1.004-.958 2.514a1.5 1.5 0 1 1-2.748-1.204c.53-1.21.563-1.952 1.144-2.886A3.5 3.5 0 0 0 4 15a3.5 3.5 0 0 0 3.5 3.5A3.5 3.5 0 0 0 11 15a3.5 3.5 0 0 0-.012-.24 3.5 3.5 0 0 0 .012.002 3.5 3.5 0 0 0 .01 0A3.5 3.5 0 0 0 11 15a3.5 3.5 0 0 0 3.5 3.5A3.5 3.5 0 0 0 18 15a3.5 3.5 0 0 0-3.35-3.495zM14.5 13.5A1.5 1.5 0 0 1 16 15a1.5 1.5 0 0 1-1.5 1.5A1.5 1.5 0 0 1 13 15a1.5 1.5 0 0 1 1.5-1.5z"/><path fill="#fff" d="M7.5 4A3.5 3.5 0 0 0 4 7.5a3.5 3.5 0 0 0 3.282 3.492c.03-.047.054-.093.087-.142.343-.506.976-.959 1.599-1.14.623-.181 1.24-.21 2.032-.21a1.5 1.5 0 0 1 .22.017c.494.073.716.02.775-.002.06-.022.044.003.136-.136.184-.278.466-1.247.99-2.47a1.5 1.5 0 0 1 1.372-.929 1.5 1.5 0 0 1 1.386 2.11c-.399.932-.564 1.891-1.22 2.902A3.5 3.5 0 0 0 18 7.5 3.5 3.5 0 0 0 14.5 4a3.5 3.5 0 0 0-3.491 3.262 3.5 3.5 0 0 0-.009 0 3.5 3.5 0 0 0-.012 0A3.5 3.5 0 0 0 7.5 4zm0 2A1.5 1.5 0 0 1 9 7.5 1.5 1.5 0 0 1 7.5 9 1.5 1.5 0 0 1 6 7.5 1.5 1.5 0 0 1 7.5 6zm7.15 5.005-.018.031c-.34.514-.893 1.032-1.59 1.291-.645.24-1.342.267-2.086.175-.629.003-1.002.053-1.124.086-.031.07-.297 1.004-.958 2.514a1.5 1.5 0 1 1-2.748-1.204c.53-1.21.563-1.952 1.144-2.886A3.5 3.5 0 0 0 4 14.5 3.5 3.5 0 0 0 7.5 18a3.5 3.5 0 0 0 3.5-3.5 3.5 3.5 0 0 0-.012-.24 3.5 3.5 0 0 0 .012.002 3.5 3.5 0 0 0 .01 0 3.5 3.5 0 0 0-.01.238 3.5 3.5 0 0 0 3.5 3.5 3.5 3.5 0 0 0 3.5-3.5 3.5 3.5 0 0 0-3.35-3.495zM14.5 13a1.5 1.5 0 0 1 1.5 1.5 1.5 1.5 0 0 1-1.5 1.5 1.5 1.5 0 0 1-1.5-1.5 1.5 1.5 0 0 1 1.5-1.5z"/></g></svg>
